X:5469
T:Red-Haired Lass, The
T:Red Haired Lass, The
T:Shearing the Sheep
T:Crusheen, The
T:Jim Seery's
T:Peter Kennedy's Fancy
O:england
S:as recorded by James Morrison and John McKenna
D:Wheels of the World vol. 2, Shanachie YAZOO 7009, 1996
N:transcription by Alan Ng of the dominant line without notation of cuts, first time through only
R:reel
M:C|
K:GMaj
E:12
D~G3 GABG|G2BG AGEG|D~G3 BGBd|egdB cBAG|\
D~G3 G2BG|GABG AGEG|D~G3 BGBd|gedB cABc||\
~d2gd edgd|degd edBc|~d2gd edef|gedB cABc|\
~d2gd edgd|~d2gd edBd|c4 B3A|G2Bd egdB:|


